X: 29
T: Drumdelgie
B: begged borrowed and stolen
M:6/8
L:1/8
R: jig
Q: 3/8=100
K:Dmajor
V:1 
|:ABA AFA|d2f g2f|e2c A2F|G3 F2G|
 ABA AFA|d2f g2f|e2c ABc|1 d3 c2B:|2 d3 d2e||
 |:f2f d2f|g2f e2g|f2d A2F|G3 F2G|
 ABA AFA|d2f g2f|e2c ABc|1 d3 d2e:|2 d3 c2B||
% abcbook-tune_id 62828a3af84bc6dced4989ca


% abcbook-boost 0
% abcbook-tablature 
% abcbook-transpose 
% abcbook-lastupdated 1652725431060
% abcbook-soundfonts 
% abcbook-repeats 3
% abc-sessionorg_id 5534
% abc-sessionorg_setting 0
% abc-sessionorg_setting_id 5534
% abc-boost 0

